images/picnic_site.svg

<?xml version="1.0" encoding="UTF-8" standalone="no"?>
<!-- Created with Inkscape (http://www.inkscape.org/) -->

<svg xmlns:dc="http://purl.org/dc/elements/1.1/" xmlns:cc="http://creativecommons.org/ns#" xmlns:rdf="http://www.w3.org/1999/02/22-rdf-syntax-ns#" xmlns:svg="http://www.w3.org/2000/svg" xmlns="http://www.w3.org/2000/svg" xmlns:sodipodi="http://sodipodi.sourceforge.net/DTD/sodipodi-0.dtd" xmlns:inkscape="http://www.inkscape.org/namespaces/inkscape" width="50" height="50" viewBox="0 0 13.229167 13.229167" version="1.1" id="svg8" inkscape:version="0.92.3 (2405546, 2018-03-11)" sodipodi:docname="picnic.svg">
  <defs id="defs2" />
  <sodipodi:namedview id="base" pagecolor="#ffffff" bordercolor="#666666" borderopacity="1.0" inkscape:pageopacity="0.0" inkscape:pageshadow="2" inkscape:zoom="32.000001" inkscape:cx="3.0409219" inkscape:cy="37.531981" inkscape:document-units="mm" inkscape:current-layer="svg8" showgrid="true" inkscape:window-width="1881" inkscape:window-height="1051" inkscape:window-x="0" inkscape:window-y="0" inkscape:window-maximized="1" inkscape:pagecheckerboard="true" units="px">
    <inkscape:grid type="xygrid" id="grid13930" units="px" spacingx="0.26458334" spacingy="0.26458334" originx="0" originy="0" />
  </sodipodi:namedview>
  <metadata id="metadata5">
    <rdf:RDF>
      <cc:Work rdf:about="">
        <dc:format>image/svg+xml</dc:format>
        <dc:type rdf:resource="http://purl.org/dc/dcmitype/StillImage" />
        <dc:title />
      </cc:Work>
    </rdf:RDF>
  </metadata>
  <path style="color:#000000;font-style:normal;font-variant:normal;font-weight:normal;font-stretch:normal;font-size:medium;line-height:normal;font-family:sans-serif;font-variant-ligatures:normal;font-variant-position:normal;font-variant-caps:normal;font-variant-numeric:normal;font-variant-alternates:normal;font-feature-settings:normal;text-indent:0;text-align:start;text-decoration:none;text-decoration-line:none;text-decoration-style:solid;text-decoration-color:#000000;letter-spacing:normal;word-spacing:normal;text-transform:none;writing-mode:lr-tb;direction:ltr;text-orientation:mixed;dominant-baseline:auto;baseline-shift:baseline;text-anchor:start;white-space:normal;shape-padding:0;clip-rule:nonzero;display:inline;overflow:visible;visibility:visible;opacity:0.5;isolation:auto;mix-blend-mode:normal;color-interpolation:sRGB;color-interpolation-filters:linearRGB;solid-color:#000000;solid-opacity:1;vector-effect:none;fill:none;fill-opacity:1;fill-rule:evenodd;stroke:#ffffff;stroke-width:0.79374999;stroke-linecap:round;stroke-linejoin:round;stroke-miterlimit:4;stroke-dasharray:none;stroke-dashoffset:0;stroke-opacity:1;color-rendering:auto;image-rendering:auto;shape-rendering:auto;text-rendering:auto;enable-background:accumulate" d="M 1.984375,2.64532 V 2.91093 H 2.5869222 L 2.2902995,3.70365 H 1.4552083 V 3.96927 H 2.1905639 L 1.8613851,4.84828 L 2.1073649,4.94178 L 2.4722005,3.96923 H 3.6121826 L 3.9765014,4.94178 L 4.2245483,4.84828 L 3.8953694,3.96927 H 4.630725 V 3.70365 H 3.7961506 L 3.4990111,2.91093 H 4.1015583 V 2.64532 Z M 2.8695922,2.91093 H 3.2163411 L 3.5129639,3.70365 H 2.571936 Z" id="outline" inkscape:connector-curvature="0" />
  <path inkscape:connector-curvature="0" id="path1054" d="M 1.984375,2.64532 V 2.91093 H 2.5869222 L 2.2902995,3.70365 H 1.4552083 V 3.96927 H 2.1905639 L 1.8613851,4.84828 L 2.1073649,4.94178 L 2.4722005,3.96923 H 3.6121826 L 3.9765014,4.94178 L 4.2245483,4.84828 L 3.8953694,3.96927 H 4.630725 V 3.70365 H 3.7961506 L 3.4990111,2.91093 H 4.1015583 V 2.64532 Z M 2.8695922,2.91093 H 3.2163411 L 3.5129639,3.70365 H 2.571936 Z" style="color:#000000;font-style:normal;font-variant:normal;font-weight:normal;font-stretch:normal;font-size:medium;line-height:normal;font-family:sans-serif;font-variant-ligatures:normal;font-variant-position:normal;font-variant-caps:normal;font-variant-numeric:normal;font-variant-alternates:normal;font-feature-settings:normal;text-indent:0;text-align:start;text-decoration:none;text-decoration-line:none;text-decoration-style:solid;text-decoration-color:#000000;letter-spacing:normal;word-spacing:normal;text-transform:none;writing-mode:lr-tb;direction:ltr;text-orientation:mixed;dominant-baseline:auto;baseline-shift:baseline;text-anchor:start;white-space:normal;shape-padding:0;clip-rule:nonzero;display:inline;overflow:visible;visibility:visible;opacity:1;isolation:auto;mix-blend-mode:normal;color-interpolation:sRGB;color-interpolation-filters:linearRGB;solid-color:#000000;solid-opacity:1;vector-effect:none;fill:#000000;fill-opacity:1;fill-rule:evenodd;stroke:none;stroke-width:0.26458332px;stroke-linecap:butt;stroke-linejoin:miter;stroke-miterlimit:4;stroke-dasharray:none;stroke-dashoffset:0;stroke-opacity:1;color-rendering:auto;image-rendering:auto;shape-rendering:auto;text-rendering:auto;enable-background:accumulate" />
</svg>

<svg xmlns="http://www.w3.org/2000/svg" width="50" height="50" viewBox="0 0 13.229 13.229">
    <path d="M1.984 2.645v.266h.603l-.297.793h-.835v.265h.736l-.33.88.246.093.365-.973h1.14l.365.973.248-.094-.33-.879h.736v-.265h-.835L3.5 2.91h.603v-.266zm.886.266h.346l.297.793h-.941z" color="#000" opacity=".5" fill="none" stroke="#fff" stroke-width=".794" stroke-linecap="round" stroke-linejoin="round"/>
    <path d="M1.984 2.645v.266h.603l-.297.793h-.835v.265h.736l-.33.88.246.093.365-.973h1.14l.365.973.248-.094-.33-.879h.736v-.265h-.835L3.5 2.91h.603v-.266zm.886.266h.346l.297.793h-.941z" color="#000" fill-rule="evenodd"/>
</svg>
